X: 32182
T: Peter's Peerie Boat
R: jig
M: 6/8
K: Dmajor
d2d D2D|EFG ABc|d2d Bed|cAA ABc|
d2d D2D|EFG ABc|d2d AGE|FDD D2A:|
|:d2d f2d|c2c e2c|B2B dcB|A3 F2F|
GFG BAG|F2A d2z|E2G B2z|C2E A2z|
dcd fed|cBc edc|B2B dcB|A3 F2F|
GFG BAG|F2A a2g|fed Adc|d3 D3:|

